app/assets/images/payment_icons/cash_app_pay.svg

<svg width="38" height="24" viewBox="0 0 38 24" fill="none" xmlns="http://www.w3.org/2000/svg">
<path d="M0 9.62041C0 6.2601 0 4.57994 0.653961 3.29647C1.2292 2.1675 2.14708 1.24962 3.27606 0.674375C4.55953 0.0204144 6.23969 0.0204144 9.6 0.0204144L28.3825 0C31.7428 0 33.4364 0.0204144 34.7198 0.674375C35.8488 1.24962 36.7667 2.1675 37.3419 3.29647C37.9959 4.57994 37.9959 6.2601 37.9959 9.62041L37.9983 14.4008C37.9983 17.7611 37.9983 19.4413 37.3444 20.7248C36.7691 21.8537 35.8512 22.7716 34.7223 23.3469C33.4388 24.0008 31.7586 24.0008 28.3983 24.0008H9.60245C6.24213 24.0008 4.56198 24.0008 3.27851 23.3469C2.14953 22.7716 1.23165 21.8537 0.65641 20.7248C0.00244862 19.4413 0.00244844 17.7611 0.00244844 14.4008L0 9.62041Z" fill="#00D64F"/>
<path fill-rule="evenodd" clip-rule="evenodd" d="M19.9049 8.26311C21.0191 8.26311 22.0869 8.71425 22.7847 9.33352C22.9611 9.49018 23.2253 9.48922 23.3909 9.3214L24.221 8.47943C24.3962 8.30172 24.3898 8.01074 24.2006 7.84835C23.6436 7.36945 22.8957 6.89854 21.9753 6.59703L22.2356 5.35721C22.2921 5.08697 22.0863 4.83301 21.81 4.83301H20.2058C20.0007 4.83301 19.8233 4.97658 19.7805 5.17726L19.546 6.2799C17.4135 6.38646 15.6061 7.45049 15.6061 9.63375C15.6061 11.5238 17.1015 12.3339 18.6798 12.8944C20.1752 13.455 20.9642 13.663 20.9642 14.452C20.9642 15.2621 20.1752 15.7397 19.0119 15.7397C17.9514 15.7397 16.8405 15.3897 15.9784 14.5398C15.8093 14.3729 15.5388 14.3716 15.3697 14.5385L14.4776 15.4184C14.3031 15.5904 14.3047 15.8731 14.4805 16.0435C15.176 16.7186 16.0566 17.2074 17.0616 17.4811L16.8169 18.6297C16.7598 18.899 16.9636 19.1529 17.2393 19.1551L18.846 19.1673C19.0528 19.1689 19.2324 19.0243 19.2745 18.8217L19.5065 17.7175C22.0598 17.5599 23.6225 16.172 23.6225 14.1406C23.6225 12.2717 22.0652 11.4823 20.1752 10.8385C19.0952 10.4435 18.1604 10.1739 18.1604 9.36415C18.1604 8.57514 19.033 8.26311 19.9049 8.26311" fill="white"/>
</svg>

<svg width="38" height="24" viewBox="0 0 38 24" fill="none" xmlns="http://www.w3.org/2000/svg"><path d="M0 9.62c0-3.36 0-5.04.654-6.324A6 6 0 013.276.674C4.56.02 6.24.02 9.6.02L28.382 0c3.36 0 5.054.02 6.338.674a6 6 0 012.622 2.622c.654 1.284.654 2.964.654 6.324l.002 4.78c0 3.361 0 5.041-.654 6.325a6.001 6.001 0 01-2.622 2.622C33.44 24 31.76 24 28.398 24H9.602c-3.36 0-5.04 0-6.323-.654a6 6 0 01-2.623-2.622C.002 19.44.002 17.76.002 14.4L0 9.62z" fill="#00D64F"/><path fill-rule="evenodd" clip-rule="evenodd" d="M19.905 8.263c1.114 0 2.182.451 2.88 1.07.176.157.44.156.606-.012l.83-.842a.433.433 0 00-.02-.63 6.563 6.563 0 00-2.226-1.252l.26-1.24a.435.435 0 00-.425-.524h-1.604a.435.435 0 00-.425.344l-.235 1.103c-2.133.106-3.94 1.17-3.94 3.354 0 1.89 1.496 2.7 3.074 3.26 1.495.561 2.284.769 2.284 1.558 0 .81-.789 1.288-1.952 1.288-1.06 0-2.172-.35-3.034-1.2a.433.433 0 00-.608-.001l-.892.88a.438.438 0 00.002.625c.696.675 1.577 1.163 2.582 1.437l-.245 1.149a.435.435 0 00.422.525l1.607.012a.434.434 0 00.428-.345l.232-1.104c2.554-.158 4.116-1.546 4.116-3.577 0-1.87-1.557-2.659-3.447-3.303-1.08-.394-2.015-.664-2.015-1.474 0-.789.873-1.1 1.745-1.1" fill="#fff"/></svg>
